X:1
T:Title
%%score { 1 | 2 }
L:1/8
M:3/4
K:F
V:1 treble nm="Grand Piano"
V:2 bass 
V:1
 z2 z2[Q:1/4=96] C2 | CF F2 A2 | [FA][EG] [EG]2 [Ec]2 | [Ec][Ec] [Ec]2 E2 |[M:2/4] GF F2 | %5
[M:1/4] C2 |[M:3/4] CF F2 A2 | [FA][EG] [EG]2 [Ec]2 | [Ec][Ec] [Ec]2 E2 |[M:2/4] GF F2 | %10
[M:1/4] c2 |[M:3/4] [Fd][Fd] [Fd]2 [Fd]2 | cA c2 c2 | [Fd][Fd] [Fd]2 [Fd]2 | %14
[M:5/8] [Fc][FA] [EG]3 |[M:1/4] C2 |[M:3/4] CF F2 A2 | [FA][EG] [EG]2 [Ec]2 | [Ec][Ec] [Ec]2 E2 | %19
[M:6/4] GF .F4 z6 |] %20
V:2
 z2 z2 [F,A,]2 | [F,A,][F,A,C] [F,A,C]2 [F,CF]2 | [C,C][C,C] [C,C]2 [C,G,]2 | %3
 [C,G,][C,G,] [C,G,]2 [C,B,C]2 |[M:2/4] [F,B,C][F,A,C] [F,A,C]2 |[M:1/4] [F,A,]2 | %6
[M:3/4] [F,A,][F,A,C] [F,A,C]2 [F,CF]2 | [C,C][C,C] [C,C]2 [C,G,]2 | %8
 [C,G,][C,G,] [C,G,]2 [C,B,C]2 |[M:2/4] [F,B,C][F,A,C] [F,A,C]2 |[M:1/4] [F,A,F]2 | %11
[M:3/4] [B,,B,][B,,B,] [B,,B,]2 [B,,B,]2 | [F,A,F][F,CF] [F,A,F]2 [F,A,F]2 | %13
 [B,,B,][B,,B,] [B,,B,]2 [B,,B,]2 |[M:5/8] [F,A,][F,C] [C,C]3 |[M:1/4] [F,A,]2 | %16
[M:3/4] [F,A,][F,A,C] [F,A,C]2 [F,CF]2 | [C,C][C,C] [C,C]2 [C,G,]2 | %18
 [C,G,][C,G,] [C,G,]2 [C,B,C]2 |[M:6/4] [F,B,C][F,A,C] .[F,A,C]4 z6 |] %20

